packages/icons/svg/Fill/trash-2.svg

<svg fill="none" height="24" viewBox="0 0 24 24" width="24" xmlns="http://www.w3.org/2000/svg"><path clip-rule="evenodd" d="m16 16c0 .55-.45 1-1 1s-1-.45-1-1v-4c0-.55.45-1 1-1s1 .45 1 1zm-6-11.67193c0-.155.214-.328.5-.328h3c.286 0 .5.173.5.328v1.672h-4zm0 11.67193c0 .55-.44998 1-.99998 1s-1-.45-1-1v-4c0-.55.45-1 1-1s.99998.45.99998 1zm11-10h-1-4v-1.672c0-1.284-1.121-2.328-2.5-2.328h-3c-1.37898 0-2.49998 1.044-2.49998 2.328v1.672h-4-1c-.55 0-1 .45-1 1s.45 1 1 1h1v11c0 1.654 1.346 3 3 3h9.99998c1.654 0 3-1.346 3-3v-11h1c.55 0 1-.45 1-1s-.45-1-1-1z" fill="#6b7280" fill-rule="evenodd"/></svg>

<svg width="24" height="24" viewBox="0 0 24 24" fill="none" xmlns="http://www.w3.org/2000/svg">
<g id="Icon/Fill/trash-2">
<path id="Mask" fill-rule="evenodd" clip-rule="evenodd" d="M16 16C16 16.55 15.55 17 15 17C14.45 17 14 16.55 14 16V12C14 11.45 14.45 11 15 11C15.55 11 16 11.45 16 12V16ZM10 4.328C10 4.173 10.214 4 10.5 4H13.5C13.786 4 14 4.173 14 4.328V6H10V4.328ZM10 16C10 16.55 9.55 17 9 17C8.45 17 8 16.55 8 16V12C8 11.45 8.45 11 9 11C9.55 11 10 11.45 10 12V16ZM21 6H20H16V4.328C16 3.044 14.879 2 13.5 2H10.5C9.121 2 8 3.044 8 4.328V6H4H3C2.45 6 2 6.45 2 7C2 7.55 2.45 8 3 8H4V19C4 20.654 5.346 22 7 22H17C18.654 22 20 20.654 20 19V8H21C21.55 8 22 7.55 22 7C22 6.45 21.55 6 21 6Z" fill="#000000"/>
</g>
</svg>
